src/4-icons/cancel.svg

<svg width="260" height="260" viewBox="0 0 260 260" fill="none" xmlns="http://www.w3.org/2000/svg">
<g opacity="0.9">
<path d="M92.9236 163.02L89.2318 159.355C88.2172 158.367 88.2182 156.703 89.2582 155.663L117.858 127.063L89.2582 98.4632C88.2436 97.476 88.2436 95.8124 89.2582 94.7978L92.9236 91.1324C93.9108 90.1178 95.5743 90.1178 96.589 91.1324L125.189 119.732L153.789 91.1324C154.776 90.1178 156.44 90.1178 157.454 91.1324L161.12 94.7978C162.134 95.785 162.134 97.4486 161.12 98.4632L132.52 127.063L161.12 155.663C162.134 156.65 162.134 158.314 161.12 159.329L157.454 163.02C156.467 164.035 154.804 164.035 153.789 163.02L125.189 134.42L96.589 163.02C95.6018 164.035 93.9382 164.035 92.9236 163.02Z" fill="black"/>
<path fill-rule="evenodd" clip-rule="evenodd" d="M204.49 127.089C204.49 170.899 169 206.389 125.19 206.389C81.3801 206.389 45.8901 170.899 45.8901 127.089C45.8901 83.2786 81.3801 47.7886 125.19 47.7886C169 47.7886 204.49 83.2786 204.49 127.089ZM125.191 58.215C106.132 58.215 88.9465 65.9104 76.4665 78.3904C63.9876 90.8714 56.2912 108.057 56.2912 127.115C56.2912 146.174 63.9855 163.36 76.4665 175.84C88.9476 188.32 106.159 196.015 125.191 196.015C144.25 196.015 161.436 188.321 173.916 175.84C186.396 163.359 194.091 146.147 194.091 127.115C194.091 108.056 186.397 90.8694 173.916 78.3904C161.435 65.9114 144.223 58.215 125.191 58.215Z" fill="black"/>
</g>
</svg>

<svg width="260" height="260" fill="none" xmlns="http://www.w3.org/2000/svg"><g opacity=".9" fill="#000"><path d="m92.924 163.02-3.692-3.665c-1.015-.988-1.014-2.652.026-3.692l28.6-28.6-28.6-28.6c-1.014-.987-1.014-2.65 0-3.665l3.666-3.666c.987-1.014 2.65-1.014 3.665 0l28.6 28.6 28.6-28.6c.987-1.014 2.651-1.014 3.665 0l3.666 3.666c1.014.987 1.014 2.65 0 3.665l-28.6 28.6 28.6 28.6c1.014.987 1.014 2.651 0 3.666l-3.666 3.691c-.987 1.015-2.65 1.015-3.665 0l-28.6-28.6-28.6 28.6c-.987 1.015-2.65 1.015-3.665 0Z"/><path fill-rule="evenodd" clip-rule="evenodd" d="M204.49 127.089c0 43.81-35.49 79.3-79.3 79.3-43.81 0-79.3-35.49-79.3-79.3 0-43.81 35.49-79.3 79.3-79.3 43.81 0 79.3 35.49 79.3 79.3Zm-79.299-68.874c-19.059 0-36.245 7.695-48.725 20.175-12.478 12.481-20.175 29.667-20.175 48.725 0 19.059 7.695 36.245 20.175 48.725 12.482 12.48 29.693 20.175 48.725 20.175 19.059 0 36.245-7.694 48.725-20.175 12.48-12.481 20.175-29.693 20.175-48.725 0-19.059-7.694-36.246-20.175-48.725-12.481-12.479-29.693-20.175-48.725-20.175Z"/></g></svg>
